X: 08014
T: BOB'S BREAKDOWN
C: Bob McQuillen 18 Apr 91
B: Bob's Note Book 8 #14
%R: reel, hornpipe
Z: 2021 John Chambers <jc:trillian.mit.edu>
M: C
L: 1/8
K: Em
GA \
| BGAG EDB,D | EGBd edBA | GBAG EGBA | GEDB, D2GA |\
| BGAG EDB,D | EGBd edBA | GBAG EDB,A, | B,EED E2 :|
|: GA \
| Bdeg bage | dBde dBGA | Bdeg bage | dBGB A2GA |\
| BGEG AGEG | DEGB AGEG | Bdge dBAB | GEED E2 :|
%%begintext align
%% Bob Stein
%% is a real whiz-bang accordion player down
%% Philly way and it's always a real blast when
%% I get to play with him. I sure hope this tune
%% sounds OK on your box, Bob! Hope to see you soon.
%%endtext

%%sep 1 1 500

%%sep 1 1 500

